Numix-GalliumOS/32/devices/gnome-dev-network.svg

<?xml version="1.0" encoding="UTF-8" standalone="no"?>
<svg
   xmlns:dc="http://purl.org/dc/elements/1.1/"
   xmlns:cc="http://creativecommons.org/ns#"
   xmlns:rdf="http://www.w3.org/1999/02/22-rdf-syntax-ns#"
   xmlns:svg="http://www.w3.org/2000/svg"
   xmlns="http://www.w3.org/2000/svg"
   xmlns:sodipodi="http://sodipodi.sourceforge.net/DTD/sodipodi-0.dtd"
   xmlns:inkscape="http://www.inkscape.org/namespaces/inkscape"
   width="32"
   height="32"
   viewBox="0 0 32 32"
   id="svg1784"
   version="1.1"
   inkscape:version="0.91 r"
   sodipodi:docname="gnome-dev-network.svg">
  <metadata
     id="metadata1796">
    <rdf:RDF>
      <cc:Work
         rdf:about="">
        <dc:format>image/svg+xml</dc:format>
        <dc:type
           rdf:resource="http://purl.org/dc/dcmitype/StillImage" />
      </cc:Work>
    </rdf:RDF>
  </metadata>
  <defs
     id="defs1794" />
  <sodipodi:namedview
     pagecolor="#ffffff"
     bordercolor="#666666"
     borderopacity="1"
     objecttolerance="10"
     gridtolerance="10"
     guidetolerance="10"
     inkscape:pageopacity="0"
     inkscape:pageshadow="2"
     inkscape:window-width="640"
     inkscape:window-height="480"
     id="namedview1792" />
  <g
     style="fill-opacity:.8"
     id="g1786">
    <path
       style="fill:#ededec"
       d="M 3.488281 5.367188 C 3.039062 5.464844 2.691406 5.90625 2.699219 6.363281 L 2.699219 24.964844 C 2.699219 25.488281 3.175781 25.964844 3.699219 25.964844 L 28.300781 25.964844 C 28.824219 25.964844 29.300781 25.488281 29.300781 24.964844 L 29.300781 8.378906 C 29.300781 7.855469 28.824219 7.382812 28.300781 7.382812 L 18.660156 7.382812 L 18.660156 6.363281 C 18.660156 5.84375 18.183594 5.367188 17.664062 5.367188 L 3.699219 5.367188 C 3.628906 5.363281 3.558594 5.363281 3.488281 5.367188 Z "
       id="path1788" />
    <path
       style="fill:#000"
       d="M 3.457031 5.332031 C 3.007812 5.429688 2.65625 5.871094 2.667969 6.332031 L 2.667969 25 C 2.667969 25.523438 3.144531 26 3.667969 26 L 28.332031 26 C 28.855469 26 29.332031 25.523438 29.332031 25 L 29.332031 8.355469 C 29.332031 7.832031 28.855469 7.355469 28.332031 7.355469 L 18.667969 7.355469 L 18.667969 6.332031 C 18.667969 5.808594 18.191406 5.332031 17.667969 5.332031 L 3.667969 5.332031 C 3.597656 5.324219 3.527344 5.324219 3.457031 5.332031 Z M 15.332031 10.667969 L 16 10.667969 C 18.941406 10.667969 21.332031 13.058594 21.332031 16 C 21.332031 18.941406 19.609375 21.332031 16 21.332031 C 12.667969 21.332031 10.667969 18.941406 10.667969 16 C 10.667969 13.058594 13.058594 10.667969 15.332031 10.667969 Z M 16.4375 11.417969 C 16.433594 11.441406 16.441406 11.433594 16.4375 11.457031 C 16.390625 11.910156 16.136719 11.617188 16.042969 11.667969 C 15.945312 11.714844 15.3125 12.59375 15.3125 12.5 C 15.3125 12.40625 15.4375 12.269531 15.4375 12.269531 C 15.4375 12.269531 15.472656 11.867188 15.394531 11.4375 C 15.1875 11.464844 14.988281 11.488281 14.792969 11.542969 L 14.167969 12.5625 C 14.21875 12.570312 14.285156 12.585938 14.355469 12.625 C 14.6875 12.816406 14.820312 12.996094 14.917969 13.019531 C 15.011719 13.042969 15.433594 12.441406 15.125 13.082031 C 14.816406 13.726562 14.667969 13.941406 14.3125 14.082031 C 14.289062 14.089844 14.273438 14.09375 14.25 14.105469 C 14.160156 14.214844 14.03125 14.320312 13.875 14.457031 C 13.539062 14.757812 13.375 14.804688 13.375 15.105469 C 13.375 15.402344 13.382812 15.640625 13.144531 16.042969 C 12.910156 16.441406 12.753906 16.429688 12.855469 16.730469 C 12.957031 17.027344 13.023438 17.566406 12.855469 17.332031 C 12.6875 17.101562 12.757812 16.628906 12.625 16.894531 C 12.507812 17.128906 12.230469 17.21875 12.207031 17.457031 C 12.207031 17.492188 12.199219 17.519531 12.207031 17.5625 C 12.210938 17.570312 12.207031 17.574219 12.207031 17.582031 C 12.292969 17.871094 12.792969 17.480469 12.792969 17.707031 C 12.792969 17.941406 12.355469 17.925781 12.457031 18.125 C 12.558594 18.324219 12.953125 17.734375 13.292969 17.832031 C 13.628906 17.933594 13.40625 17.992188 13.707031 18.125 C 14.011719 18.257812 14.1875 18.402344 14.1875 18.605469 C 14.1875 18.804688 15.144531 18.707031 15.042969 19.042969 C 14.941406 19.375 14.84375 19.300781 14.542969 19.667969 C 14.375 19.867188 14.222656 19.984375 14.125 20.082031 C 14.261719 20.183594 14.296875 20.242188 14.457031 20.1875 C 14.671875 20.117188 14.394531 20.011719 14.5625 19.917969 C 14.605469 19.894531 14.621094 19.875 14.644531 19.855469 C 14.671875 19.835938 14.699219 19.808594 14.75 19.792969 C 14.851562 19.761719 15.054688 19.75 15.519531 19.75 C 16.449219 19.75 16.894531 19.792969 16.894531 19.792969 C 16.894531 19.792969 17.203125 19.792969 16.917969 19.957031 C 16.707031 20.078125 16.28125 20.296875 16.230469 20.355469 C 16.25 20.351562 16.300781 20.347656 16.355469 20.332031 C 16.78125 20.214844 17.375 20.109375 17.542969 20.0625 C 17.613281 20.042969 17.988281 19.847656 18.292969 19.707031 C 18.304688 19.679688 18.300781 19.652344 18.3125 19.625 L 18.292969 19.625 C 18.054688 19.523438 17.871094 19.070312 17.9375 18.9375 C 18.003906 18.804688 18.164062 18.691406 18.332031 18.355469 C 18.5 18.015625 18.472656 18.25 18 17.644531 C 17.527344 17.039062 17.277344 17.679688 17.042969 17.480469 C 16.804688 17.277344 16.328125 17.097656 16.125 16.730469 C 15.921875 16.359375 16.019531 16.632812 16.019531 16.230469 C 16.019531 15.824219 15.980469 16.128906 16.082031 15.792969 C 16.183594 15.457031 16.453125 15.421875 16.792969 15.1875 C 16.839844 15.152344 16.890625 15.148438 16.9375 15.125 C 16.863281 15.054688 16.753906 14.898438 16.542969 14.6875 C 16.542969 14.6875 16.75 14.253906 16.917969 14.1875 C 17.078125 14.121094 17.175781 14.144531 17.394531 14.207031 C 17.40625 14.171875 17.40625 14.164062 17.417969 14.082031 C 17.449219 13.8125 17.3125 13.960938 17.3125 13.792969 C 17.3125 13.625 17.390625 13.796875 17.625 13.730469 C 17.859375 13.660156 17.867188 13.203125 18.105469 13.269531 C 18.339844 13.339844 18.339844 13.179688 18.542969 12.875 C 18.742188 12.570312 18.539062 12.738281 18.269531 12.605469 C 18 12.46875 18.234375 12.804688 18.167969 13.042969 C 18.097656 13.277344 17.902344 13.128906 17.667969 12.625 C 17.429688 12.121094 17.636719 12.320312 17.769531 11.917969 C 17.792969 11.847656 17.820312 11.8125 17.855469 11.769531 C 17.417969 11.582031 16.933594 11.460938 16.4375 11.417969 Z M 17.332031 13.207031 C 17.4375 13.222656 17.511719 13.335938 17.5625 13.4375 C 17.589844 13.492188 17.574219 13.507812 17.542969 13.519531 C 17.542969 13.519531 17.582031 13.632812 17.582031 13.667969 C 17.582031 13.699219 17.515625 13.6875 17.355469 13.644531 C 17.234375 13.613281 17.316406 13.601562 17.394531 13.542969 L 17.25 13.542969 C 17.191406 13.542969 17.160156 13.53125 17.144531 13.519531 C 17.15625 13.527344 17.152344 13.523438 17.167969 13.542969 C 17.1875 13.566406 17.1875 13.578125 17.1875 13.582031 C 17.164062 13.582031 17.097656 13.570312 17.042969 13.582031 C 16.933594 13.609375 17.054688 13.53125 17.105469 13.4375 C 17.105469 13.4375 17.132812 13.457031 17.144531 13.480469 C 17.167969 13.433594 17.207031 13.347656 17.207031 13.230469 C 17.25 13.210938 17.300781 13.199219 17.332031 13.207031 Z M 19.875 13.5 C 19.707031 13.625 19.488281 13.90625 19.3125 14.082031 C 19.007812 14.386719 19.476562 14.425781 19.644531 14.457031 C 19.8125 14.492188 19.976562 14.375 20.3125 14.375 C 20.304688 14.359375 20.296875 14.347656 20.292969 14.332031 C 20.246094 14.339844 20.199219 14.355469 20.144531 14.355469 C 19.949219 14.355469 20.078125 14.164062 20.125 13.894531 C 20.054688 13.757812 19.957031 13.628906 19.875 13.5 Z M 17.792969 14.125 C 17.71875 14.101562 17.609375 14.175781 17.480469 14.25 C 17.570312 14.382812 17.292969 14.753906 17.144531 15.019531 C 17.140625 15.027344 17.128906 15.03125 17.125 15.042969 C 17.414062 14.992188 17.867188 15.0625 18.875 15.3125 C 18.875 15.3125 19.246094 15.21875 19.3125 15.355469 C 19.335938 15.402344 19.472656 15.425781 19.625 15.4375 C 20.03125 15.277344 19.8125 15.136719 19.8125 14.8125 C 19.8125 14.476562 19.308594 14.855469 19.375 14.6875 C 19.441406 14.519531 19.296875 14.527344 19.0625 14.292969 C 18.828125 14.054688 18.875 14.875 18.707031 14.707031 C 18.539062 14.542969 18.527344 14.675781 18.457031 14.542969 C 18.390625 14.40625 18.167969 14.1875 18.167969 14.1875 C 18.167969 14.1875 18.324219 14.371094 18.292969 14.707031 C 18.257812 15.042969 17.792969 14.75 17.792969 14.75 C 17.792969 14.75 17.867188 14.722656 18 14.6875 C 18.132812 14.652344 17.976562 14.445312 17.875 14.207031 C 17.851562 14.152344 17.824219 14.136719 17.792969 14.125 Z M 20.625 15.792969 C 20.585938 15.820312 20.527344 15.859375 20.480469 15.875 C 20.109375 16.007812 19.855469 16.292969 19.855469 16.292969 C 19.855469 16.292969 20.28125 16.292969 20.582031 16.5625 C 20.605469 16.378906 20.625 16.191406 20.625 16 C 20.625 15.929688 20.628906 15.859375 20.625 15.792969 Z "
       id="path1790" />
  </g>
</svg>

<svg xmlns="http://www.w3.org/2000/svg" viewBox="0 0 32 32">
 <g style="fill-opacity:0.8">
  <path d="m 3.488 5.367 c -0.449 0.098 -0.797 0.539 -0.789 0.996 l 0 18.602 c 0 0.523 0.477 1 1 1 l 24.602 0 c 0.523 0 1 -0.477 1 -1 l 0 -16.586 c 0 -0.523 -0.477 -0.996 -1 -0.996 l -9.641 0 l 0 -1.02 c 0 -0.52 -0.477 -0.996 -0.996 -0.996 l -13.965 0 c -0.07 -0.004 -0.141 -0.004 -0.211 0 Z" style="fill:#ededec"/>
  <path d="m 3.457 5.332 c -0.449 0.098 -0.801 0.539 -0.789 1 l 0 18.668 c 0 0.523 0.477 1 1 1 l 24.664 0 c 0.523 0 1 -0.477 1 -1 l 0 -16.645 c 0 -0.523 -0.477 -1 -1 -1 l -9.664 0 l 0 -1.023 c 0 -0.523 -0.477 -1 -1 -1 l -14 0 c -0.07 -0.008 -0.141 -0.008 -0.211 0 m 11.875 5.336 l 0.668 0 c 2.941 0 5.332 2.391 5.332 5.332 c 0 2.941 -1.723 5.332 -5.332 5.332 c -3.332 0 -5.332 -2.391 -5.332 -5.332 c 0 -2.941 2.391 -5.332 4.664 -5.332 m 1.105 0.75 c -0.004 0.023 0.004 0.016 0 0.039 c -0.047 0.453 -0.301 0.16 -0.395 0.211 c -0.098 0.047 -0.73 0.926 -0.73 0.832 c 0 -0.094 0.125 -0.23 0.125 -0.23 c 0 0 0.035 -0.402 -0.043 -0.832 c -0.207 0.027 -0.406 0.051 -0.602 0.105 l -0.625 1.02 c 0.051 0.008 0.117 0.023 0.188 0.063 c 0.332 0.191 0.465 0.371 0.563 0.395 c 0.094 0.023 0.516 -0.578 0.207 0.063 c -0.309 0.645 -0.457 0.859 -0.813 1 c -0.023 0.008 -0.039 0.012 -0.063 0.023 c -0.09 0.109 -0.219 0.215 -0.375 0.352 c -0.336 0.301 -0.5 0.348 -0.5 0.648 c 0 0.297 0.008 0.535 -0.23 0.938 c -0.234 0.398 -0.391 0.387 -0.289 0.688 c 0.102 0.297 0.168 0.836 0 0.602 c -0.168 -0.23 -0.098 -0.703 -0.23 -0.438 c -0.117 0.234 -0.395 0.324 -0.418 0.563 c 0 0.035 -0.008 0.063 0 0.105 c 0.004 0.008 0 0.012 0 0.02 c 0.086 0.289 0.586 -0.102 0.586 0.125 c 0 0.234 -0.438 0.219 -0.336 0.418 c 0.102 0.199 0.496 -0.391 0.836 -0.293 c 0.336 0.102 0.113 0.16 0.414 0.293 c 0.305 0.133 0.48 0.277 0.48 0.48 c 0 0.199 0.957 0.102 0.855 0.438 c -0.102 0.332 -0.199 0.258 -0.5 0.625 c -0.168 0.199 -0.32 0.316 -0.418 0.414 c 0.137 0.102 0.172 0.16 0.332 0.105 c 0.215 -0.07 -0.063 -0.176 0.105 -0.27 c 0.043 -0.023 0.059 -0.043 0.082 -0.063 c 0.027 -0.02 0.055 -0.047 0.105 -0.063 c 0.102 -0.031 0.305 -0.043 0.77 -0.043 c 0.93 0 1.375 0.043 1.375 0.043 c 0 0 0.309 0 0.023 0.164 c -0.211 0.121 -0.637 0.34 -0.688 0.398 c 0.02 -0.004 0.07 -0.008 0.125 -0.023 c 0.426 -0.117 1.02 -0.223 1.188 -0.27 c 0.07 -0.02 0.445 -0.215 0.75 -0.355 c 0.012 -0.027 0.008 -0.055 0.02 -0.082 l -0.02 0 c -0.238 -0.102 -0.422 -0.555 -0.355 -0.688 c 0.066 -0.133 0.227 -0.246 0.395 -0.582 c 0.168 -0.34 0.141 -0.105 -0.332 -0.711 c -0.473 -0.605 -0.723 0.035 -0.957 -0.164 c -0.238 -0.203 -0.715 -0.383 -0.918 -0.75 c -0.203 -0.371 -0.105 -0.098 -0.105 -0.5 c 0 -0.406 -0.039 -0.102 0.063 -0.438 c 0.102 -0.336 0.371 -0.371 0.711 -0.605 c 0.047 -0.035 0.098 -0.039 0.145 -0.063 c -0.074 -0.07 -0.184 -0.227 -0.395 -0.438 c 0 0 0.207 -0.434 0.375 -0.5 c 0.16 -0.066 0.258 -0.043 0.477 0.02 c 0.012 -0.035 0.012 -0.043 0.023 -0.125 c 0.031 -0.27 -0.105 -0.121 -0.105 -0.289 c 0 -0.168 0.078 0.004 0.313 -0.063 c 0.234 -0.07 0.242 -0.527 0.48 -0.461 c 0.234 0.07 0.234 -0.09 0.438 -0.395 c 0.199 -0.305 -0.004 -0.137 -0.273 -0.27 c -0.27 -0.137 -0.035 0.199 -0.102 0.438 c -0.07 0.234 -0.266 0.086 -0.5 -0.418 c -0.238 -0.504 -0.031 -0.305 0.102 -0.707 c 0.023 -0.07 0.051 -0.105 0.086 -0.148 c -0.438 -0.188 -0.922 -0.309 -1.418 -0.352 m 0.895 1.789 c 0.105 0.016 0.18 0.129 0.23 0.23 c 0.027 0.055 0.012 0.07 -0.02 0.082 c 0 0 0.039 0.113 0.039 0.148 c 0 0.031 -0.066 0.02 -0.227 -0.023 c -0.121 -0.031 -0.039 -0.043 0.039 -0.102 l -0.145 0 c -0.059 0 -0.09 -0.012 -0.105 -0.023 c 0.012 0.008 0.008 0.004 0.023 0.023 c 0.02 0.023 0.02 0.035 0.02 0.039 c -0.023 0 -0.09 -0.012 -0.145 0 c -0.109 0.027 0.012 -0.051 0.063 -0.145 c 0 0 0.027 0.02 0.039 0.043 c 0.023 -0.047 0.063 -0.133 0.063 -0.25 c 0.043 -0.02 0.094 -0.031 0.125 -0.023 m 2.543 0.293 c -0.168 0.125 -0.387 0.406 -0.563 0.582 c -0.305 0.305 0.164 0.344 0.332 0.375 c 0.168 0.035 0.332 -0.082 0.668 -0.082 c -0.008 -0.016 -0.016 -0.027 -0.02 -0.043 c -0.047 0.008 -0.094 0.023 -0.148 0.023 c -0.195 0 -0.066 -0.191 -0.02 -0.461 c -0.07 -0.137 -0.168 -0.266 -0.25 -0.395 m -2.082 0.625 c -0.074 -0.023 -0.184 0.051 -0.313 0.125 c 0.09 0.133 -0.188 0.504 -0.336 0.77 c -0.004 0.008 -0.016 0.012 -0.02 0.023 c 0.289 -0.051 0.742 0.02 1.75 0.27 c 0 0 0.371 -0.094 0.438 0.043 c 0.023 0.047 0.16 0.07 0.313 0.082 c 0.406 -0.16 0.188 -0.301 0.188 -0.625 c 0 -0.336 -0.504 0.043 -0.438 -0.125 c 0.066 -0.168 -0.078 -0.16 -0.313 -0.395 c -0.234 -0.238 -0.188 0.582 -0.355 0.414 c -0.168 -0.164 -0.18 -0.031 -0.25 -0.164 c -0.066 -0.137 -0.289 -0.355 -0.289 -0.355 c 0 0 0.156 0.184 0.125 0.52 c -0.035 0.336 -0.5 0.043 -0.5 0.043 c 0 0 0.074 -0.027 0.207 -0.063 c 0.133 -0.035 -0.023 -0.242 -0.125 -0.48 c -0.023 -0.055 -0.051 -0.07 -0.082 -0.082 m 2.832 1.668 c -0.039 0.027 -0.098 0.066 -0.145 0.082 c -0.371 0.133 -0.625 0.418 -0.625 0.418 c 0 0 0.426 0 0.727 0.27 c 0.023 -0.184 0.043 -0.371 0.043 -0.563 c 0 -0.07 0.004 -0.141 0 -0.207 Z" style="fill:#000"/>
 </g>
</svg>
